X:1
T:32
L:1/8
Q:1/4=60
M:2/4
K:Amin
V:1 treble nm="Piano" snm="Pno."
V:1
 A/E/A/B/ cA | e/^d/ e2 c | B/Ac/ BF | E4 | c/B/A/B/ c>E | F>A d2 | B/c/d- d/c/B/^G/ | A4 |] %8

